X: 2
T: The Merry Sisters
R: reel
M: 4/4
L: 1/8
K: Edor
dc|:BE{G}E{F}E Bd c/2{d}c/2A|{c}BE{G}E{F}E dAFA|BE{f}ec d2cA|Be{f}ed BAFA|Be{f}ec dcdA|B3/2{c}B/2{A}Bc dAFA|Be{f}ec d2-dA|Be{f}ec defg|af .g/2.f/2e fded|BABc dAFA|BdcA {c}BAFA|BE{G}E{F}E BEFA|B3/2{c}B/2{A}BA B3/2{c}B/2{A}Bc|dD{G}D{F}D ADFA|BdcA {c}BAFA|BE{G}E{F}E {c}BAFA|D2.E/2.F/2A d2eg|fdec dAFA|]


Tune 165	Setting 165

